ui/StatusQ/src/assets/img/icons/network/Network=Base-test.svg

<svg fill="none" height="24" viewBox="0 0 25 24" width="25" xmlns="http://www.w3.org/2000/svg" xmlns:xlink="http://www.w3.org/1999/xlink"><clipPath id="a"><path d="m.808594 0h24v24h-24z"/></clipPath><g clip-path="url(#a)"><path d="m12.8086 24c6.6274 0 12-5.3726 12-12 0-6.62742-5.3726-12-12-12-6.62742 0-12.000006 5.37258-12.000006 12 0 6.6274 5.372586 12 12.000006 12z" fill="#858ccc"/><path d="m12.8618 20.339c4.6511 0 8.4214-3.7639 8.4214-8.4068 0-4.64297-3.7703-8.40681-8.4214-8.40681-4.41259 0-8.03255 3.38786-8.39207 7.70011h11.13117v1.4133h-11.13117c.35952 4.3122 3.97948 7.7002 8.39207 7.7002z" fill="#fff"/></g></svg>

<svg width="25" height="24" viewBox="0 0 25 24" fill="none" xmlns="http://www.w3.org/2000/svg">
<g clip-path="url(#clip0_6293_50057)">
<path d="M12.8086 24C19.436 24 24.8086 18.6274 24.8086 12C24.8086 5.37258 19.436 0 12.8086 0C6.18118 0 0.808594 5.37258 0.808594 12C0.808594 18.6274 6.18118 24 12.8086 24Z" fill="#858CCC"/>
<path d="M12.8618 20.339C17.5129 20.339 21.2832 16.5751 21.2832 11.9322C21.2832 7.28923 17.5129 3.52539 12.8618 3.52539C8.44921 3.52539 4.82925 6.91325 4.46973 11.2255H15.6009V12.6388H4.46973C4.82925 16.951 8.44921 20.339 12.8618 20.339Z" fill="white"/>
</g>
<defs>
<clipPath id="clip0_6293_50057">
<rect width="24" height="24" fill="white" transform="translate(0.808594)"/>
</clipPath>
</defs>
</svg>
